X:1
T:Mason's Apron
M:4/4
L:1/8
K:G
 dd| g2 G2 GB AG| DE GA BG AB| c2 A2 AB AG| FG AB| cd ef| g2 G2 GB AG|\
 DE GA B2 AG| AB cd ef ge| dB AB| G2| dd|B-d-d-de-d-d-d|B-d-d-de-d-d-d|\
c-e-e-ef-e-e-e|c-e-e-e|f-e-d-c|B-d-d-de-d-d-d|B-d-d-de-d-c-B| cB cd ed ef|\
 ge dB| G2||
